img/facebook.svg

<svg fill="none" height="31" viewBox="0 0 31 31" width="31" xmlns="http://www.w3.org/2000/svg" xmlns:xlink="http://www.w3.org/1999/xlink"><clipPath id="a"><path d="m0 0h30.9861v30.9861h-30.9861z"/></clipPath><g clip-path="url(#a)"><path d="m20.6529 5.14499h2.8287v-4.926796c-.488-.067137-2.1664-.218194-4.1211-.218194-4.0785 0-6.8725 2.56539-6.8725 7.28045v4.33935h-4.5007v5.5078h4.5007v13.8585h5.5181v-13.8572h4.3187l.6856-5.5078h-5.0055v-3.79452c.0012-1.59192.4299-2.68159 2.648-2.68159z" fill="#fff"/></g></svg>

<svg width="31" height="31" viewBox="0 0 31 31" fill="none" xmlns="http://www.w3.org/2000/svg">
<g clip-path="url(#clip0_4_1810)">
<path d="M20.6529 5.14499H23.4816V0.218194C22.9936 0.151057 21.3152 0 19.3605 0C15.282 0 12.488 2.56539 12.488 7.28045V11.6198H7.9873V17.1276H12.488V30.9861H18.0061V17.1289H22.3248L23.0104 11.6211H18.0049V7.82658C18.0061 6.23466 18.4348 5.14499 20.6529 5.14499Z" fill="white"/>
</g>
<defs>
<clipPath id="clip0_4_1810">
<rect width="30.9861" height="30.9861" fill="white"/>
</clipPath>
</defs>
</svg>
